local/share/icons/dracula-icons-main/scalable/apps/kitty.svg

<?xml version="1.0" encoding="UTF-8"?>
<svg xmlns="http://www.w3.org/2000/svg" xmlns:xlink="http://www.w3.org/1999/xlink" width="64" height="64" viewBox="0 0 64 64">
<path fill-rule="nonzero" fill="rgb(20%, 20%, 20%)" fill-opacity="1" d="M 15.609375 8.464844 C 15.609375 12.410156 12.410156 15.609375 8.464844 15.609375 C 4.519531 15.609375 1.324219 12.410156 1.324219 8.464844 C 1.324219 4.519531 4.519531 1.324219 8.464844 1.324219 C 12.410156 1.324219 15.609375 4.519531 15.609375 8.464844 Z M 15.609375 8.464844 "/>
<path fill-rule="evenodd" fill="rgb(100%, 100%, 100%)" fill-opacity="1" d="M 4.875 3.96875 L 12.058594 3.96875 L 12.058594 6.613281 L 4.875 6.613281 Z M 4.875 3.96875 "/>
<path fill-rule="evenodd" fill="rgb(75.294118%, 78.431373%, 12.156863%)" fill-opacity="1" d="M 6.777344 6.046875 C 6.910156 6.046875 7.015625 5.796875 7.015625 5.472656 C 7.015625 5.144531 6.910156 4.894531 6.777344 4.894531 C 6.644531 4.894531 6.539062 5.144531 6.539062 5.472656 C 6.539062 5.796875 6.644531 6.046875 6.777344 6.046875 Z M 6.777344 6.046875 "/>
<path fill-rule="evenodd" fill="rgb(60.784314%, 34.901961%, 17.647059%)" fill-opacity="1" d="M 13.632812 1.71875 C 13.308594 1.375 11.828125 1.792969 10.929688 2.351562 C 10.222656 1.992188 9.375 1.773438 8.472656 1.773438 C 7.554688 1.773438 6.707031 1.992188 6.003906 2.351562 C 5.101562 1.792969 3.601562 1.359375 3.296875 1.71875 C 2.972656 2.082031 3.53125 3.578125 4.199219 4.40625 C 4.144531 4.625 4.109375 4.839844 4.109375 5.074219 C 4.109375 5.796875 4.414062 6.464844 4.9375 7.003906 L 7.914062 7.003906 C 7.824219 6.824219 7.949219 6.71875 8.492188 6.71875 C 9.035156 6.734375 9.140625 6.824219 9.070312 7.003906 L 12.046875 7.003906 C 12.570312 6.464844 12.875 5.777344 12.875 5.074219 C 12.875 4.839844 12.839844 4.625 12.785156 4.40625 C 13.417969 3.578125 13.957031 2.0625 13.632812 1.71875 Z M 6.777344 6.484375 C 6.148438 6.484375 5.625 5.960938 5.625 5.328125 C 5.625 4.695312 6.148438 4.171875 6.777344 4.171875 C 7.410156 4.171875 7.933594 4.695312 7.933594 5.328125 C 7.933594 5.960938 7.410156 6.484375 6.777344 6.484375 Z M 10.171875 6.484375 C 9.539062 6.484375 9.015625 5.960938 9.015625 5.328125 C 9.015625 4.695312 9.539062 4.171875 10.171875 4.171875 C 10.800781 4.171875 11.324219 4.695312 11.324219 5.328125 C 11.324219 5.960938 10.820312 6.484375 10.171875 6.484375 Z M 10.171875 6.484375 "/>
<path fill-rule="evenodd" fill="rgb(47.45098%, 18.823529%, 0%)" fill-opacity="1" d="M 2.0625 4.070312 C 1.773438 4.070312 1.488281 4.113281 1.214844 4.210938 C 2.746094 4.40625 3.992188 5.003906 5.109375 6.085938 C 4.613281 4.914062 3.316406 4.074219 2.0625 4.070312 Z M 14.867188 4.070312 C 13.617188 4.074219 12.320312 4.914062 11.820312 6.085938 C 12.941406 5.003906 14.183594 4.40625 15.71875 4.210938 C 15.445312 4.113281 15.15625 4.070312 14.867188 4.070312 Z M 1.804688 4.90625 C 1.253906 4.914062 0.71875 5.054688 0.257812 5.347656 C 1.988281 5.074219 3.558594 5.527344 5.039062 6.410156 C 4.292969 5.480469 3.011719 4.882812 1.804688 4.90625 Z M 15.128906 4.90625 C 13.917969 4.882812 12.636719 5.480469 11.894531 6.410156 C 13.371094 5.527344 14.941406 5.074219 16.675781 5.347656 C 16.210938 5.054688 15.675781 4.914062 15.128906 4.90625 Z M 2.503906 5.800781 C 1.773438 5.789062 1.113281 5.992188 0.78125 6.484375 C 2.316406 5.996094 3.648438 6.210938 5.128906 6.789062 C 4.5 6.191406 3.441406 5.816406 2.503906 5.800781 Z M 14.429688 5.800781 C 13.492188 5.816406 12.433594 6.191406 11.804688 6.789062 C 13.285156 6.210938 14.617188 5.996094 16.152344 6.484375 C 15.820312 5.992188 15.160156 5.789062 14.429688 5.800781 Z M 14.429688 5.800781 "/>
<path fill-rule="evenodd" fill="rgb(41.176471%, 31.372549%, 31.372549%)" fill-opacity="1" d="M 3.703125 5.726562 C 3.253906 5.726562 2.875 5.960938 2.695312 6.320312 L 2.640625 6.320312 C 2.152344 6.320312 1.738281 6.679688 1.738281 7.132812 C 1.738281 7.761719 2.386719 8.105469 2.980469 7.890625 C 3.34375 8.414062 4.117188 8.449219 4.40625 7.890625 C 4.839844 7.871094 5.542969 7.800781 5.652344 7.132812 C 5.722656 6.679688 5.253906 6.320312 4.75 6.320312 L 4.695312 6.320312 C 4.550781 5.960938 4.15625 5.726562 3.703125 5.726562 Z M 13.230469 5.726562 C 13.679688 5.726562 14.058594 5.960938 14.238281 6.320312 L 14.292969 6.320312 C 14.546875 6.320312 15.195312 6.679688 15.195312 7.132812 C 15.195312 7.761719 14.546875 8.105469 13.949219 7.890625 C 13.589844 8.414062 12.8125 8.449219 12.527344 7.890625 C 12.09375 7.871094 11.390625 7.800781 11.28125 7.132812 C 11.207031 6.679688 11.929688 6.320312 12.183594 6.320312 L 12.238281 6.320312 C 12.382812 5.960938 12.777344 5.726562 13.230469 5.726562 Z M 13.230469 5.726562 "/>
<path fill-rule="evenodd" fill="rgb(75.294118%, 78.431373%, 12.156863%)" fill-opacity="1" d="M 10.128906 6.046875 C 10.261719 6.046875 10.371094 5.796875 10.371094 5.472656 C 10.371094 5.144531 10.261719 4.894531 10.128906 4.894531 C 9.996094 4.894531 9.890625 5.144531 9.890625 5.472656 C 9.890625 5.796875 9.996094 6.046875 10.128906 6.046875 Z M 10.128906 6.046875 "/>
<path fill-rule="nonzero" fill="rgb(100%, 100%, 100%)" fill-opacity="1" d="M 8.730469 12.09375 L 11.410156 12.09375 C 11.816406 12.09375 11.816406 12.699219 11.410156 12.699219 L 8.730469 12.699219 C 8.328125 12.699219 8.328125 12.09375 8.730469 12.09375 Z M 5.511719 8.824219 C 5.242188 8.539062 5.652344 8.128906 5.9375 8.394531 L 7.832031 10.289062 C 7.953125 10.40625 7.953125 10.597656 7.832031 10.714844 L 5.9375 12.609375 C 5.652344 12.875 5.242188 12.46875 5.511719 12.183594 L 7.191406 10.5 Z M 5.511719 8.824219 "/>
<path fill-rule="nonzero" fill="rgb(100%, 100%, 100%)" fill-opacity="1" d="M 9.191406 6.976562 C 9.191406 7.175781 8.867188 7.339844 8.464844 7.339844 C 8.066406 7.339844 7.742188 7.175781 7.742188 6.976562 C 7.742188 6.777344 8.066406 6.613281 8.464844 6.613281 C 8.867188 6.613281 9.191406 6.777344 9.191406 6.976562 Z M 9.191406 6.976562 "/>
</svg>

<?xml version="1.0" encoding="UTF-8"?>
<svg width="64" height="64" version="1.1" viewBox="0 0 16.933 16.933" xmlns="http://www.w3.org/2000/svg" xmlns:cc="http://creativecommons.org/ns#" xmlns:dc="http://purl.org/dc/elements/1.1/" xmlns:rdf="http://www.w3.org/1999/02/22-rdf-syntax-ns#">
 <metadata>
  <rdf:RDF>
   <cc:Work rdf:about="">
    <dc:format>image/svg+xml</dc:format>
    <dc:type rdf:resource="http://purl.org/dc/dcmitype/StillImage"/>
    <dc:title/>
   </cc:Work>
  </rdf:RDF>
 </metadata>
 <circle cx="8.4665" cy="8.4665" r="7.1436" fill="#333" stroke-width="0" style="paint-order:stroke fill markers"/>
 <g fill-rule="evenodd" stroke-width="0">
  <g stroke-linecap="round" stroke-linejoin="round">
   <rect x="4.8758" y="3.9687" width="7.1814" height="2.6458" ry="0" fill="#fff" stroke="#000" stroke-width="0"/>
   <path d="m6.7766 6.0484c0.13292 0 0.23926-0.25257 0.23926-0.57731s-0.10634-0.57731-0.23926-0.57731-0.23926 0.25257-0.23926 0.57731 0.10634 0.57731 0.23926 0.57731z" clip-rule="evenodd" fill="#c0c81f" stroke="#969c18"/>
   <path d="m13.634 1.7197c-0.32474-0.34278-1.8041 0.072163-2.7061 0.63143-0.70359-0.36082-1.5515-0.57731-2.4536-0.57731-0.92008 0-1.768 0.21649-2.4716 0.57731-0.90204-0.55927-2.3994-0.99225-2.7061-0.63143-0.32474 0.36082 0.23453 1.8582 0.90204 2.6881-0.054123 0.21649-0.090204 0.43298-0.090204 0.66751 0 0.72163 0.30669 1.3891 0.82988 1.9304h2.9767c-0.090204-0.18041 0.036082-0.28865 0.57731-0.28865 0.54123 0.018041 0.64947 0.10825 0.57731 0.28865h2.9767c0.52318-0.54123 0.82988-1.2268 0.82988-1.9304 0-0.23453-0.03608-0.45102-0.0902-0.66751 0.63143-0.82988 1.1727-2.3453 0.84792-2.6881zm-6.8555 4.7628c-0.63143 0-1.1546-0.52318-1.1546-1.1546 0-0.63143 0.52318-1.1546 1.1546-1.1546 0.63143 0 1.1546 0.52318 1.1546 1.1546 0 0.63143-0.52318 1.1546-1.1546 1.1546zm3.3917 0c-0.63143 0-1.1546-0.52318-1.1546-1.1546 0-0.63143 0.52318-1.1546 1.1546-1.1546 0.63143 0 1.1546 0.52318 1.1546 1.1546 0 0.63143-0.50514 1.1546-1.1546 1.1546z" clip-rule="evenodd" fill="#9b592d" stroke="#543117"/>
  </g>
  <g clip-rule="evenodd">
   <path d="m2.0639 4.0711c-0.28903-5.821e-4 -0.57607 0.043775-0.85007 0.13849 1.5335 0.19845 2.7784 0.7939 3.897 1.8763-0.49839-1.1727-1.7944-2.0123-3.0469-2.0148zm12.805 0c-1.2524 0.0025135-2.5484 0.84218-3.0469 2.0148 1.1185-1.0824 2.3634-1.6779 3.897-1.8763-0.274-0.094714-0.56104-0.13907-0.85007-0.13849zm-13.065 0.83353c-0.54951 0.010065-1.0844 0.14815-1.5467 0.44132 1.7319-0.27061 3.3017 0.18052 4.781 1.0645-0.74418-0.93024-2.0255-1.528-3.2345-1.5058zm13.324 0c-1.2089-0.022143-2.4902 0.57559-3.2345 1.5058 1.4794-0.88401 3.049-1.3351 4.781-1.0645-0.4623-0.29315-0.99715-0.43124-1.5467-0.44132zm-12.625 0.89452c-0.73077-0.011993-1.3903 0.19431-1.7218 0.68367 1.5335-0.48712 2.868-0.27088 4.3476 0.30644-0.62917-0.59874-1.6861-0.97469-2.6256-0.99011zm11.927 0c-0.93958 0.01542-1.9965 0.39137-2.6256 0.99011 1.4793-0.57731 2.8141-0.79355 4.3476-0.30644-0.33149-0.48937-0.99106-0.69566-1.7218-0.68367z" fill="#793000" stroke="#461900"/>
   <path d="m3.7037 5.7248c-0.45102 0-0.82988 0.23453-1.0103 0.59535h-0.054123c-0.4871 0-0.90204 0.36082-0.90204 0.81184 0 0.63143 0.64947 0.9742 1.2448 0.75771 0.36082 0.52318 1.1366 0.55927 1.4252 0 0.43298-0.018041 1.1366-0.090204 1.2448-0.75771 0.072163-0.45102-0.3969-0.81184-0.90204-0.81184h-0.054123c-0.14433-0.36082-0.54122-0.59535-0.99225-0.59535zm9.5256 0c0.45102 0 0.82988 0.23453 1.0103 0.59535h0.05412c0.25257 0 0.90204 0.36082 0.90204 0.81184 0 0.63143-0.64947 0.9742-1.2448 0.75771-0.36082 0.52318-1.1366 0.55927-1.4252 0-0.43298-0.018041-1.1366-0.090204-1.2448-0.75771-0.07216-0.45102 0.64947-0.81184 0.90204-0.81184h0.05412c0.14433-0.36082 0.54123-0.59535 0.99225-0.59535z" fill="#695050" stroke="#3c2c2c"/>
   <path d="m10.13 6.0484c0.13292 0 0.23926-0.25257 0.23926-0.57731s-0.10634-0.57731-0.23926-0.57731-0.23926 0.25257-0.23926 0.57731 0.10634 0.57731 0.23926 0.57731z" fill="#c0c81f" stroke="#969c18"/>
  </g>
 </g>
 <path d="m8.7319 12.093h2.679c0.40385 5.19e-4 0.40385 0.60604 0 0.60656h-2.679c-0.40385-5.19e-4 -0.40385-0.60604 0-0.60656zm-3.2218-3.2703c-0.26612-0.28558 0.14305-0.69475 0.42863-0.42863l1.8945 1.8935c0.11826 0.11841 0.11826 0.31022 0 0.42863l-1.8945 1.8945c-0.28558 0.26608-0.69472-0.14305-0.42863-0.42863l1.6802-1.6802z" fill="#fff"/>
 <ellipse cx="8.4665" cy="6.9761" rx=".72543" ry=".36235" fill="#fff" stroke-width="0" style="paint-order:stroke fill markers"/>
</svg>
